X: 477
T: Mrs. Henry Lumsden of Tillwhilly's Strathspey
C:Marshall
O:Scotland
B:Keith Norman MacDonald : "The Skye collection of the best reels & strathspeys extant" : 1887
Z:Ralph Palmer
R:Strathspey
M:C
L:1/8
K:Bb
g |\
B<B {Bc}d>c ~B2 (B>F) | G>BF>B {Bc}d<c-c>!wedge!g |\
B<B {Bc}d>c ~B2 (B>d) | ([c/G/]d/)c/B/ ([A/E4]G/)F/E/ D<B, B,g |
B<B {Bc}d>c ~B2 (B>F) | G>BF>B {Bc}d<cc>g |\
B<B {Bc}d>c ~B2 (B>d) | (c/d/)c/B/ A/G/F/E/ D<B, B, :|
B |\
D<B,B,>G D<B,B,>B | DB, G/F/E/D/ ECCB |\
DB,DF EGFB | e<gTc>e d<B ~B2 |
D<B,B,>B D<B,B,>B | D>B, G/F/E/D/ ECCg |\
{/g}T[d3/2f3/2]e/ {/e}T[B3/2d3/2]c/ ~[D2B2] ([F3/2B3/2]d/) | ([G/c/]d/)c/B/ ([E/A/]G/)F/E/ D<B,B, |]


